X:33
T:Rose Of Allandale. CAM2.[34], The
B:Anon MS#2, early 19thC, Northumbria, Cocks Coll.
Z:Village Music Project 2016 Steve Mansfield
M:C
L:1/8
Q:2/4=60
N:* edcB in Mss
K:D
A2 | f3e d3c | edcB A3A | d2f2 fedf | d4 z2A2 |
f3e d3c | edcB A3A | BcdB cdef | d4 z2 ||
d2 | e2c2A2 cd | f2d2 A2 zA | f2f2 fedf | d4 c2 {A A/B/c/d/e/f/g/a/} A2 |
f3e d3c | edcB A3A | BcdB cdef | d4 z2 ||
a2 | a2f2f2 d2 | B4 G2 z2 {A/B/c/d/e/f/g/} |  g3f fedf | e4 z2A2 |
d>c edcB | A2 {c/d/e/f/g} a2 c2 A2 | BcdB cdef | d4 z2 |]

